X:1
T:Title
L:1/8
M:4/4
I:linebreak $
K:G
V:1 treble nm="Voice"
V:1
"G" B2 BA BdBG |"C" c2 cB cecA |"G" GBdf gfge | d3 e dcBA |"G" B2 BA BdBG |"C" cBcd efge | %6
"G" dBGB"C" cA"D"FA |1"G" G2 GF G2 dc :|2"G" G2 GF G2 BA |:"G" GBdf gfge | d3 e dcBA | GBdf gfge | %12
 d3 e dcBA |"G" BdGd BdGd |"C" ceAe ceAe |"G" BdGd BdGd |"D" FADA FADA |"G" BdGd BdGd | %18
"C" cBcd efge |"G" dBGB"C" cA"D"FA |1"G" G2 GF G2 BA :|2"G" G2 GF G2 dc |] %22
